X:141
T:Mary Willie's Slide
M:12/8
L:1/8
R:Slide
K:D
A|:"D"d2 e f2 a baf a2 f|"A"e2 A cBA e2 A cBA|"D"d2 e f2 a baf a2 f|"A"e2 A cBA "D"d3 d2A:|!
"D"d2 e f2 e "G"dcd B2 A|"A"g2 A cBA e2 A cBA|"D"d2 e f2 e "G"dcd B2 A|"A"g2 A cBA "D"d3 d2 A:|

